assets/camera-video-off.svg

<svg xmlns="http://www.w3.org/2000/svg" fill="none" viewBox="0 0 28 26">
  <path fill="#2A2238" fill-rule="evenodd" d="M19.1818 20.3962c.4991-.5318.8186-1.207.9134-1.9302l5.4426 2.4185c.2663.1187.5582.1689.8489.1461.2908-.0227.5712-.1178.8159-.2766.2446-.1587.4457-.3761.585-.6324.1393-.2562.2123-.5432.2124-.8349V6.22825c-.0003-.29142-.0733-.57816-.2124-.8342-.1392-.25604-.3401-.47327-.5845-.63198-.2444-.15871-.5246-.25387-.8151-.27684-.2905-.02298-.5822.02695-.8485.14527L20.0952 7.049c-.1112-.8416-.5244-1.61409-1.1629-2.17363-.6384-.55953-1.4584-.86797-2.3073-.86787H7.476l1.2495 1.75h7.8995c.4641 0 .9092.18437 1.2374.51256.3282.32819.5126.77331.5126 1.23744v10.5c.0003.3195-.0868.633-.252.9065l1.0588 1.4822ZM2.499 6.0725c-.23127.1611-.42017.37573-.55059.62559-.13041.24987-.19849.52756-.19841.80941v10.5c0 .4641.18437.9092.51256 1.2374.32819.3282.77331.5126 1.23744.5126h8.7745l1.2495 1.75H3.5c-.92826 0-1.8185-.3687-2.47487-1.0251C.368749 19.826 0 18.9358 0 18.0075v-10.5c0-1.18125.5845-2.226 1.48225-2.8595l1.015 1.4245H2.499ZM26.25 19.285l-6.125-2.7212V8.95125l6.125-2.723V19.2867v-.0017Zm-7.7122 6.23L1.03775 1.015 2.46225 0 19.9622 24.5l-1.4244 1.015Z" clip-rule="evenodd"/>
</svg>

<svg width="28" height="26" viewBox="0 0 28 26" fill="none" xmlns="http://www.w3.org/2000/svg">
<path fill-rule="evenodd" clip-rule="evenodd" d="M19.1818 20.3962C19.6809 19.8644 20.0004 19.1892 20.0952 18.466L25.5378 20.8845C25.8041 21.0032 26.096 21.0534 26.3867 21.0306C26.6775 21.0079 26.9579 20.9128 27.2026 20.754C27.4472 20.5953 27.6483 20.3779 27.7876 20.1216C27.9269 19.8654 27.9999 19.5784 28 19.2867V6.22825C27.9997 5.93683 27.9267 5.65009 27.7876 5.39405C27.6484 5.13801 27.4475 4.92078 27.2031 4.76207C26.9587 4.60336 26.6785 4.5082 26.388 4.48523C26.0975 4.46225 25.8058 4.51218 25.5395 4.6305L20.0952 7.049C19.984 6.2074 19.5708 5.43491 18.9323 4.87537C18.2939 4.31584 17.4739 4.0074 16.625 4.0075H7.476L8.7255 5.7575H16.625C17.0891 5.7575 17.5342 5.94187 17.8624 6.27006C18.1906 6.59825 18.375 7.04337 18.375 7.5075V18.0075C18.3753 18.327 18.2882 18.6405 18.123 18.914L19.1818 20.3962ZM2.499 6.0725C2.26773 6.2336 2.07883 6.44823 1.94841 6.69809C1.818 6.94796 1.74992 7.22565 1.75 7.5075V18.0075C1.75 18.4716 1.93437 18.9167 2.26256 19.2449C2.59075 19.5731 3.03587 19.7575 3.5 19.7575H12.2745L13.524 21.5075H3.5C2.57174 21.5075 1.6815 21.1388 1.02513 20.4824C0.368749 19.826 0 18.9358 0 18.0075V7.5075C0 6.32625 0.5845 5.2815 1.48225 4.648L2.49725 6.0725H2.499ZM26.25 19.285L20.125 16.5638V8.95125L26.25 6.22825V19.2867V19.285ZM18.5378 25.515L1.03775 1.015L2.46225 0L19.9622 24.5L18.5378 25.515Z" fill="#2A2238"/>
</svg>
